svg/file/task_line.svg

<?xml version="1.0" encoding="UTF-8"?>
<svg width="24px" height="24px" viewBox="0 0 24 24" version="1.1" xmlns="http://www.w3.org/2000/svg" xmlns:xlink="http://www.w3.org/1999/xlink">
    <title>task_line</title>
    <g id="Icon" stroke="none" stroke-width="1" fill="none" fill-rule="evenodd">
        <g id="File" transform="translate(-768.000000, -384.000000)">
            <g id="task_line" transform="translate(768.000000, 384.000000)">
                <path d="M24,0 L24,24 L0,24 L0,0 L24,0 Z M12.5935,23.2578 L12.5819,23.2595 L12.5109,23.295 L12.4919,23.2987 L12.4767,23.295 L12.4057,23.2595 C12.3958,23.2564 12.387,23.259 12.3821,23.2649 L12.378,23.2758 L12.3609,23.7031 L12.3659,23.7235 L12.3769,23.7357 L12.4805,23.8097 L12.4953,23.8136 L12.5071,23.8097 L12.6107,23.7357 L12.6233,23.7197 L12.6267,23.7031 L12.6096,23.2758 C12.6076,23.2657 12.601,23.2593 12.5935,23.2578 Z M12.8584,23.1453 L12.8445,23.1473 L12.6598,23.2397 L12.6499,23.2499 L12.6472,23.2611 L12.6651,23.6906 L12.6699,23.7034 L12.6784,23.7105 L12.8793,23.8032 C12.8914,23.8069 12.9022,23.803 12.9078,23.7952 L12.9118,23.7812 L12.8777,23.1665 C12.8753,23.1546 12.8674,23.147 12.8584,23.1453 Z M12.143,23.1473 C12.1332,23.1424 12.1222,23.1453 12.1156,23.1526 L12.1099,23.1665 L12.0758,23.7812 C12.0751,23.7927 12.0828,23.8019 12.0926,23.8046 L12.1083,23.8032 L12.3092,23.7105 L12.3186,23.7024 L12.3225,23.6906 L12.3404,23.2611 L12.3372,23.2485 L12.3278,23.2397 L12.143,23.1473 Z" id="MingCute" fill-rule="nonzero"></path>
                <path d="M15,2 C15.7403,2 16.3866,2.4022 16.7324,3 L18,3 C19.1046,3 20,3.89543 20,5 L20,17 C20,19.7614 17.7614,22 15,22 L6,22 C4.89543,22 4,21.1046 4,20 L4,5 C4,3.89543 4.89543,3 6,3 L7.26756,3 C7.61337,2.4022 8.25972,2 9,2 L15,2 Z M7,5 L6,5 L6,20 L15,20 C16.6569,20 18,18.6569 18,17 L18,5 L17,5 C17,6.10457 16.1046,7 15,7 L9,7 C7.89543,7 7,6.10457 7,5 Z M16.2383,9.37881 C16.6289,9.76934 16.6289,10.4025 16.2383,10.793 L11.2886,15.7428 C11.1011,15.9303 10.8467,16.0357 10.5815,16.0357 C10.3163,16.0357 10.0619,15.9303 9.87438,15.7428 L7.75306,13.6215 C7.36253,13.2309 7.36253,12.5978 7.75306,12.2072 C8.14358,11.8167 8.77675,11.8167 9.16727,12.2072 L10.5815,13.6215 L14.8241,9.37881 C15.2147,8.98829 15.8478,8.98829 16.2383,9.37881 Z M15,4 L9,4 L9,5 L15,5 L15,4 Z" id="形状" fill="#09244B"></path>
            </g>
        </g>
    </g>
</svg>

<svg xmlns="http://www.w3.org/2000/svg" width="24" height="24"><g fill="none" fill-rule="evenodd"><path d="M24 0v24H0V0h24ZM12.594 23.258l-.012.002-.071.035-.02.004-.014-.004-.071-.036c-.01-.003-.019 0-.024.006l-.004.01-.017.428.005.02.01.013.104.074.015.004.012-.004.104-.074.012-.016.004-.017-.017-.427c-.002-.01-.009-.017-.016-.018Zm.264-.113-.014.002-.184.093-.01.01-.003.011.018.43.005.012.008.008.201.092c.012.004.023 0 .029-.008l.004-.014-.034-.614c-.003-.012-.01-.02-.02-.022Zm-.715.002a.023.023 0 0 0-.027.006l-.006.014-.034.614c0 .012.007.02.017.024l.015-.002.201-.093.01-.008.003-.011.018-.43-.003-.012-.01-.01-.184-.092Z"/><path fill="#09244B" d="M15 2a2 2 0 0 1 1.732 1H18a2 2 0 0 1 2 2v12a5 5 0 0 1-5 5H6a2 2 0 0 1-2-2V5a2 2 0 0 1 2-2h1.268A2 2 0 0 1 9 2h6ZM7 5H6v15h9a3 3 0 0 0 3-3V5h-1a2 2 0 0 1-2 2H9a2 2 0 0 1-2-2Zm9.238 4.379a1 1 0 0 1 0 1.414l-4.95 4.95a1 1 0 0 1-1.414 0l-2.12-2.122a1 1 0 0 1 1.413-1.414l1.415 1.414 4.242-4.242a1 1 0 0 1 1.414 0ZM15 4H9v1h6V4Z"/></g></svg>
